apps/scalable/QMPlay2.svg

<svg xmlns="http://www.w3.org/2000/svg" style="isolation:isolate" width="256" height="256"><defs><filter id="a" width="270.648" height="254.338" x="-7.32" y="2.95" filterUnits="userSpaceOnUse"><feGaussianBlur xmlns="http://www.w3.org/2000/svg" in="SourceGraphic" stdDeviation="4.294"/><feOffset xmlns="http://www.w3.org/2000/svg" dy="4" result="pf_100_offsetBlur"/><feFlood xmlns="http://www.w3.org/2000/svg" flood-opacity=".4"/><feComposite xmlns="http://www.w3.org/2000/svg" in2="pf_100_offsetBlur" operator="in" result="pf_100_dropShadow"/><feBlend xmlns="http://www.w3.org/2000/svg" in="SourceGraphic" in2="pf_100_dropShadow"/></filter></defs><path fill="#4D4D4D" d="M165.685 11.947c74.055 0 84.639 10.557 84.639 84.544v59.251c0 73.986-10.584 84.543-84.639 84.543h-75.37c-74.055 0-84.639-10.557-84.639-84.543V96.491c0-73.987 10.584-84.544 84.639-84.544h75.37z" filter="url(#a)"/><g opacity=".3"><linearGradient id="b" x2="0" y1=".5" y2="-.5" gradientTransform="matrix(228.891 0 0 212.028 13.278 19.986)" gradientUnits="userSpaceOnUse"><stop offset="50.422%" stop-color="#88f2e8"/><stop offset="81.401%" stop-color="#55eedf"/><stop offset="98.28%" stop-opacity="0" stop-color="#88f2e8"/></linearGradient><path fill="url(#b)" d="M29.088 20.108c-4.682 2.533-9.291 5.115-15.81 16.118l20.94.07v-16.31c-2.145.007-2.685.119-5.13.122zm197.225-.122h-4.531v16.31h20.387v-.921c-3.507-7.025-8.783-12.145-15.856-15.389zM13.831 44.451V60.76h20.387V44.451H13.831zm207.951 0V60.76h20.387V44.451h-20.387zM13.831 68.915v16.31h20.387v-16.31H13.831zm207.951 0v16.31h20.387v-16.31h-20.387zM13.831 93.38v16.31h20.387V93.38H13.831zm207.951 0v16.31h20.387V93.38h-20.387zM13.831 117.845v16.31h20.387v-16.31H13.831zm207.951 0v16.31h20.387v-16.31h-20.387zM13.831 142.31v16.31h20.387v-16.31H13.831zm207.951 0v16.31h20.387v-16.31h-20.387zM13.831 166.775v16.31h20.387v-16.31H13.831zm207.951 0v16.31h20.387v-16.31h-20.387zM13.831 191.24v16.309h20.387V191.24H13.831zm207.951 0v16.309h20.387V191.24h-20.387zM13.831 215.704v1.234c2.586 5.641 7.569 10.676 14.919 15.076h5.468v-16.31H13.831zm207.951 0v16.31H227c5.991-2.765 11.058-7.802 15.169-15.139v-1.171h-20.387z"/></g><g opacity=".4"><linearGradient id="c" x2="0" y1=".5" y2="1.5" gradientTransform="matrix(109.681 0 0 119.008 73.16 65.992)" gradientUnits="userSpaceOnUse"><stop offset="0%" stop-opacity="0"/><stop offset="49.846%"/><stop offset="98.75%" stop-opacity="0"/></linearGradient><path fill="url(#c)" d="M73.16 65.992V185s60.358-24.395 109.68-59.542c0-.009-.006-.019-.013-.031-.005-.013-.013-.026-.021-.039a.22.22 0 0 1-.026-.039.092.092 0 0 1-.012-.038C130.743 89.044 73.16 65.992 73.16 65.992z"/></g><path d="M73.16 65.992V185s60.358-24.395 109.68-59.542c0-.009-.006-.019-.013-.031-.005-.013-.013-.026-.021-.039a.22.22 0 0 1-.026-.039.092.092 0 0 1-.012-.038C130.743 89.044 73.16 65.992 73.16 65.992z" opacity=".1"/><path fill="#31C6B7" d="M73.16 65v119.008s60.358-24.395 109.68-59.542c0-.01-.006-.018-.013-.033-.005-.014-.013-.024-.021-.039-.01-.013-.02-.025-.026-.038a.088.088 0 0 1-.012-.037C130.743 88.053 73.16 65 73.16 65z"/><path fill="#FFF" d="M73.16 65v.992s57.193 22.889 109.037 58.927c.214-.153.43-.3.643-.453 0-.01-.006-.018-.013-.033-.005-.014-.013-.026-.021-.039-.01-.015-.02-.025-.026-.038a.088.088 0 0 1-.012-.037C130.743 88.053 73.16 65 73.16 65z"/><g opacity=".1"><path fill="#FFF" d="M5.676 126.116v29.626c0 73.986 10.584 84.543 84.639 84.543h75.37c74.055 0 84.639-10.557 84.639-84.543v-29.626H5.676z"/></g><g opacity=".4"><linearGradient id="d" x1=".517" x2=".517" y2="1"><stop offset="0%" stop-color="#fff"/><stop offset="12.5%" stop-opacity=".098" stop-color="#fff"/><stop offset="92.5%" stop-opacity=".098"/><stop offset="100%" stop-opacity=".498"/></linearGradient><path fill="none" stroke="url(#d)" stroke-linecap="round" stroke-linejoin="round" stroke-width="4.077" d="M165.685 11.947c74.055 0 84.639 10.557 84.639 84.544v59.251c0 73.986-10.584 84.543-84.639 84.543h-75.37c-74.055 0-84.639-10.557-84.639-84.543V96.491c0-73.987 10.584-84.544 84.639-84.544h75.37z" vector-effect="non-scaling-stroke"/></g></svg>

<svg xmlns="http://www.w3.org/2000/svg" style="isolation:isolate" width="256" height="256" viewBox="0 0 256 256">
 <defs>
  <filter id="pXu6s7PM3d8jGSssbnODJmRlXClqFmuC" width="270.648" height="254.338" x="-7.32" y="2.95" filterUnits="userSpaceOnUse">
   <feGaussianBlur xmlns="http://www.w3.org/2000/svg" in="SourceGraphic" stdDeviation="4.294"/>
   <feOffset xmlns="http://www.w3.org/2000/svg" dx="0" dy="4" result="pf_100_offsetBlur"/>
   <feFlood xmlns="http://www.w3.org/2000/svg" flood-opacity=".4"/>
   <feComposite xmlns="http://www.w3.org/2000/svg" in2="pf_100_offsetBlur" operator="in" result="pf_100_dropShadow"/>
   <feBlend xmlns="http://www.w3.org/2000/svg" in="SourceGraphic" in2="pf_100_dropShadow" mode="normal"/>
  </filter>
 </defs>
 <g filter="url(#pXu6s7PM3d8jGSssbnODJmRlXClqFmuC)">
  <path fill="#4D4D4D" d="M 165.685 11.947 C 239.74 11.947 250.324 22.504 250.324 96.491 L 250.324 155.742 C 250.324 229.728 239.74 240.285 165.685 240.285 L 90.315 240.285 C 16.26 240.285 5.676 229.728 5.676 155.742 L 5.676 96.491 C 5.676 22.504 16.26 11.947 90.315 11.947 L 165.685 11.947 Z"/>
 </g>
 <g opacity=".3">
  <linearGradient id="_lgradient_289" x1="0" x2="0" y1=".5" y2="-.5" gradientTransform="matrix(228.891,0,0,212.028,13.278,19.986)" gradientUnits="userSpaceOnUse">
   <stop offset="50.422%" style="stop-color:rgb(136,242,232)"/>
   <stop offset="81.401%" style="stop-color:rgb(85,238,223)"/>
   <stop offset="98.28%" stop-opacity="0" style="stop-color:rgb(136,242,232)"/>
  </linearGradient>
  <path fill="url(#_lgradient_289)" d="M 29.088 20.108 C 24.406 22.641 19.797 25.223 13.278 36.226 L 34.218 36.296 L 34.218 19.986 C 32.073 19.993 31.533 20.105 29.088 20.108 Z M 226.313 19.986 L 221.782 19.986 L 221.782 36.296 L 242.169 36.296 L 242.169 35.375 C 238.662 28.35 233.386 23.23 226.313 19.986 Z M 13.831 44.451 L 13.831 60.76 L 34.218 60.76 L 34.218 44.451 L 13.831 44.451 Z M 221.782 44.451 L 221.782 60.76 L 242.169 60.76 L 242.169 44.451 L 221.782 44.451 Z M 13.831 68.915 L 13.831 85.225 L 34.218 85.225 L 34.218 68.915 L 13.831 68.915 Z M 221.782 68.915 L 221.782 85.225 L 242.169 85.225 L 242.169 68.915 L 221.782 68.915 Z M 13.831 93.38 L 13.831 109.69 L 34.218 109.69 L 34.218 93.38 L 13.831 93.38 Z M 221.782 93.38 L 221.782 109.69 L 242.169 109.69 L 242.169 93.38 L 221.782 93.38 Z M 13.831 117.845 L 13.831 134.155 L 34.218 134.155 L 34.218 117.845 L 13.831 117.845 Z M 221.782 117.845 L 221.782 134.155 L 242.169 134.155 L 242.169 117.845 L 221.782 117.845 Z M 13.831 142.31 L 13.831 158.62 L 34.218 158.62 L 34.218 142.31 L 13.831 142.31 Z M 221.782 142.31 L 221.782 158.62 L 242.169 158.62 L 242.169 142.31 L 221.782 142.31 Z M 13.831 166.775 L 13.831 183.085 L 34.218 183.085 L 34.218 166.775 L 13.831 166.775 Z M 221.782 166.775 L 221.782 183.085 L 242.169 183.085 L 242.169 166.775 L 221.782 166.775 Z M 13.831 191.24 L 13.831 207.549 L 34.218 207.549 L 34.218 191.24 L 13.831 191.24 Z M 221.782 191.24 L 221.782 207.549 L 242.169 207.549 L 242.169 191.24 L 221.782 191.24 Z M 13.831 215.704 L 13.831 216.938 C 16.417 222.579 21.4 227.614 28.75 232.014 L 34.218 232.014 L 34.218 215.704 L 13.831 215.704 Z M 221.782 215.704 L 221.782 232.014 L 227 232.014 C 232.991 229.249 238.058 224.212 242.169 216.875 L 242.169 215.704 L 221.782 215.704 Z"/>
 </g>
 <g>
  <g opacity=".4">
   <linearGradient id="_lgradient_290" x1="0" x2="0" y1=".5" y2="1.5" gradientTransform="matrix(109.681,0,0,119.008,73.16,65.992)" gradientUnits="userSpaceOnUse">
    <stop offset="0%" stop-opacity="0" style="stop-color:rgb(0,0,0)"/>
    <stop offset="49.846%" style="stop-color:rgb(0,0,0)"/>
    <stop offset="98.75%" stop-opacity="0" style="stop-color:rgb(0,0,0)"/>
   </linearGradient>
   <path fill="url(#_lgradient_290)" d="M 73.16 65.992 L 73.16 185 C 73.16 185 133.518 160.605 182.84 125.458 C 182.84 125.449 182.834 125.439 182.827 125.427 C 182.822 125.414 182.814 125.401 182.806 125.388 C 182.796 125.375 182.786 125.362 182.78 125.349 C 182.773 125.335 182.768 125.322 182.768 125.311 C 130.743 89.044 73.16 65.992 73.16 65.992 L 73.16 65.992 Z"/>
  </g>
  <g opacity=".1">
   <path d="M 73.16 65.992 L 73.16 185 C 73.16 185 133.518 160.605 182.84 125.458 C 182.84 125.449 182.834 125.439 182.827 125.427 C 182.822 125.414 182.814 125.401 182.806 125.388 C 182.796 125.375 182.786 125.362 182.78 125.349 C 182.773 125.335 182.768 125.322 182.768 125.311 C 130.743 89.044 73.16 65.992 73.16 65.992 L 73.16 65.992 Z"/>
  </g>
  <path fill="#31C6B7" d="M 73.16 65 L 73.16 184.008 C 73.16 184.008 133.518 159.613 182.84 124.466 C 182.84 124.456 182.834 124.448 182.827 124.433 C 182.822 124.419 182.814 124.409 182.806 124.394 C 182.796 124.381 182.786 124.369 182.78 124.356 C 182.773 124.342 182.768 124.33 182.768 124.319 C 130.743 88.053 73.16 65 73.16 65 L 73.16 65 Z"/>
  <path fill="#FFFFFF" d="M 73.16 65 L 73.16 65.992 C 73.16 65.992 130.353 88.881 182.197 124.919 C 182.411 124.766 182.627 124.619 182.84 124.466 C 182.84 124.456 182.834 124.448 182.827 124.433 C 182.822 124.419 182.814 124.407 182.806 124.394 C 182.796 124.379 182.786 124.369 182.78 124.356 C 182.773 124.342 182.768 124.33 182.768 124.319 C 130.743 88.053 73.16 65 73.16 65 L 73.16 65 Z"/>
 </g>
 <g opacity=".1">
  <path fill="#FFFFFF" d="M 5.676 126.116 L 5.676 155.742 C 5.676 229.728 16.26 240.285 90.315 240.285 L 165.685 240.285 C 239.74 240.285 250.324 229.728 250.324 155.742 L 250.324 126.116 L 5.676 126.116 Z"/>
 </g>
 <g opacity=".4">
  <linearGradient id="_lgradient_291" x1=".517" x2=".517" y1="0" y2="1">
   <stop offset="0%" style="stop-color:rgb(255,255,255)"/>
   <stop offset="12.5%" stop-opacity=".098" style="stop-color:rgb(255,255,255)"/>
   <stop offset="92.5%" stop-opacity=".098" style="stop-color:rgb(0,0,0)"/>
   <stop offset="100%" stop-opacity=".498" style="stop-color:rgb(0,0,0)"/>
  </linearGradient>
  <path fill="none" stroke="url(#_lgradient_291)" stroke-linecap="round" stroke-linejoin="round" stroke-width="4.077" d="M 165.685 11.947 C 239.74 11.947 250.324 22.504 250.324 96.491 L 250.324 155.742 C 250.324 229.728 239.74 240.285 165.685 240.285 L 90.315 240.285 C 16.26 240.285 5.676 229.728 5.676 155.742 L 5.676 96.491 C 5.676 22.504 16.26 11.947 90.315 11.947 L 165.685 11.947 Z" vector-effect="non-scaling-stroke"/>
 </g>
</svg>
